src/images/global/icons/alert/success.svg

<?xml version="1.0" encoding="UTF-8"?>
<svg width="48px" height="48px" viewBox="0 0 48 48" version="1.1" xmlns="http://www.w3.org/2000/svg" xmlns:xlink="http://www.w3.org/1999/xlink">
    <!-- Generator: Sketch 46.2 (44496) - http://www.bohemiancoding.com/sketch -->
    <title>icon/Alert/success</title>
    <desc>Created with Sketch.</desc>
    <defs>
        <path d="M12,0 C5.3726,0 0,5.3726 0,12 C0,18.6273 5.3726,24 12,24 C18.6273,24 24,18.6273 24,12 C24,5.3726 18.6273,0 12,0 L12,0 Z M18.5946462,7.35835385 C18.9851462,7.74895385 18.9851462,8.38205385 18.5945462,8.77255385 L9.93184615,17.4342538 C9.73654615,17.6294538 9.48064615,17.7271538 9.22474615,17.7271538 C8.96874615,17.7271538 8.71284615,17.6294538 8.51764615,17.4342538 L5.57434615,14.4907538 C5.18384615,14.1001538 5.18384615,13.4670538 5.57434615,13.0764538 C5.96494615,12.6860538 6.59814615,12.6859538 6.98854615,13.0764538 L9.22474615,15.3128538 L17.1804462,7.35815385 C17.5710462,6.96775385 18.2043462,6.96785385 18.5946462,7.35835385 L18.5946462,7.35835385 Z" id="path-1"></path>
    </defs>
    <g id="Symbols" stroke="none" stroke-width="1" fill="none" fill-rule="evenodd">
        <g id="icon/Alert/success">
            <g id="Group-2" transform="translate(12.000000, 12.000000)">
                <mask id="mask-2" fill="white">
                    <use xlink:href="#path-1"></use>
                </mask>
                <use id="Mask" fill="#384048" xlink:href="#path-1"></use>
                <g id="Color/Messaging/Success" mask="url(#mask-2)" fill="#2A7952">
                    <g transform="translate(-12.000000, -12.000000)" id="Swatch">
                        <rect x="0" y="0" width="48" height="48"></rect>
                    </g>
                </g>
            </g>
        </g>
    </g>
</svg>

<?xml version="1.0" encoding="utf-8"?>
<!-- Generator: Adobe Illustrator 21.0.2, SVG Export Plug-In . SVG Version: 6.00 Build 0)  -->
<svg version="1.1" id="icon_x2F_Alert_x2F_success-Layer_1" xmlns="http://www.w3.org/2000/svg" xmlns:xlink="http://www.w3.org/1999/xlink" x="0px" y="0px"
	 viewBox="0 0 48 48" style="enable-background:new 0 0 48 48;" xml:space="preserve">
<title>icon/Alert/success</title>
<desc>Created with Sketch.</desc>
<g id="icon_x2F_Alert_x2F_success-Symbols">
	<g id="icon_x2F_Alert_x2F_success">
		<g id="icon_x2F_Alert_x2F_success-Group-2" transform="translate(12.000000, 12.000000)">
			<g id="icon_x2F_Alert_x2F_success-Mask">
				<path id="icon_x2F_Alert_x2F_success-path-1_1_" style="fill:#384048;" d="M12,0C5.4,0,0,5.4,0,12c0,6.6,5.4,12,12,12c6.6,0,12-5.4,12-12
					C24,5.4,18.6,0,12,0L12,0z M18.6,7.4c0.4,0.4,0.4,1,0,1.4l-8.7,8.7c-0.2,0.2-0.5,0.3-0.7,0.3c-0.3,0-0.5-0.1-0.7-0.3l-2.9-2.9
					c-0.4-0.4-0.4-1,0-1.4c0.4-0.4,1-0.4,1.4,0l2.2,2.2l8-8C17.6,7,18.2,7,18.6,7.4L18.6,7.4z"/>
			</g>
			<defs>
				<filter id="icon_x2F_Alert_x2F_success-Adobe_OpacityMaskFilter" filterUnits="userSpaceOnUse" x="-12" y="-12" width="48" height="48">
					<feColorMatrix  type="matrix" values="1 0 0 0 0  0 1 0 0 0  0 0 1 0 0  0 0 0 1 0"/>
				</filter>
			</defs>
			<mask maskUnits="userSpaceOnUse" x="-12" y="-12" width="48" height="48" id="icon_x2F_Alert_x2F_success-mask-2">
				<g style="filter:url(#icon_x2F_Alert_x2F_success-Adobe_OpacityMaskFilter);">
					<path id="icon_x2F_Alert_x2F_success-path-1" style="fill:#FFFFFF;" d="M12,0C5.4,0,0,5.4,0,12c0,6.6,5.4,12,12,12c6.6,0,12-5.4,12-12C24,5.4,18.6,0,12,0
						L12,0z M18.6,7.4c0.4,0.4,0.4,1,0,1.4l-8.7,8.7c-0.2,0.2-0.5,0.3-0.7,0.3c-0.3,0-0.5-0.1-0.7-0.3l-2.9-2.9
						c-0.4-0.4-0.4-1,0-1.4c0.4-0.4,1-0.4,1.4,0l2.2,2.2l8-8C17.6,7,18.2,7,18.6,7.4L18.6,7.4z"/>
				</g>
			</mask>
			<g id="icon_x2F_Alert_x2F_success-Color_x2F_Messaging_x2F_Success" style="mask:url(#icon_x2F_Alert_x2F_success-mask-2);">
				<g id="icon_x2F_Alert_x2F_success-Swatch" transform="translate(-12.000000, -12.000000)">
					<rect style="fill:#2A7952;" width="48" height="48"/>
				</g>
			</g>
		</g>
	</g>
</g>
</svg>
